src/images/marker.svg

<svg width="28" height="20" viewBox="0 0 28 20" fill="none" xmlns="http://www.w3.org/2000/svg">
<path d="M23.959 0.946068C22.945 1.36111 21.9732 1.86789 21.0457 2.4331C19.1802 3.55612 17.4747 4.89335 15.8749 6.31946C14.2759 7.74907 12.7872 9.27892 11.3796 10.8697C11.0275 11.2674 9.4513 13.0386 9.4513 13.0386L2.89616 4.05099L0.42157 10.327L9.28619 20C10.147 18.4055 10.9754 16.8314 11.788 15.4638C11.9899 15.116 12.2013 14.7887 12.4035 14.4563C12.4035 14.4563 13.4437 12.7831 13.7173 12.3616C14.8113 10.6758 15.9938 9.0337 17.2959 7.47374C18.5995 5.91664 20.0167 4.43011 21.6232 3.12332C22.4226 2.46562 23.2735 1.8575 24.1851 1.32829C25.095 0.798046 26.0617 0.333722 27.0957 0C26.02 0.193628 24.9705 0.529888 23.959 0.946068Z" fill="#FF6B09"/>
</svg>

<svg width="28" height="20" fill="none" xmlns="http://www.w3.org/2000/svg"><path d="M23.959.946a20.637 20.637 0 00-2.913 1.487c-1.866 1.123-3.571 2.46-5.171 3.886a54.721 54.721 0 00-4.495 4.55L9.45 13.04 2.896 4.05.422 10.327 9.286 20c.861-1.595 1.69-3.169 2.502-4.536.202-.348.413-.675.615-1.008 0 0 1.04-1.673 1.314-2.094a50.541 50.541 0 013.579-4.888c1.303-1.557 2.72-3.044 4.327-4.35.8-.658 1.65-1.267 2.562-1.796.91-.53 1.877-.994 2.91-1.328-1.075.194-2.124.53-3.136.946z" fill="#FF6B09"/></svg>
